-- 1. If this is your first time running Tidal, make sure you completed the SuperDirt installation 
--    by opening the "Complete Superdirt Install" shortcut on your desktop first.

-- 2. Make sure to run the "Boot SuperDirt" shortcut on your desktop before running any Tidal code here.

-- 3. Do NOT save your work in this file. Save your own .tidal files where they are safe.

-- 4. Run the following Tidal test code by putting your cursor on it and then pressing Shift+Enter on your keyboard

d1 $ sound "bd sn"

